X:432
T:The flight of the earls
C:anon., words: anon.
O:Ireland
Z:Transcribed by Frank Nordberg - http://www.musicaviva.com
F:http://abc.musicaviva.com/tunes/ireland/fl/flight-of-the-f/flight-of-the-f-1.abc
M:C
L:1/8
K:F
C2|"F"F3G (FE) "C7"(DC)|"F"c3d"Bb"c2B2|"F"A2F2(AG) (FE)|"Bb"D6"C7"E2|
w:Be-side the camp_ fire's_ fit-ful blaze, a-mid the for--est_ dread. I
"F"F3G (FE) "C7"(DC)|"F"c3d"Bb"c2B2|"F"A2G2 "G7"(FG) (A=B)|"C7"c6c2|
w:pic-ture in_ the_ dy-ing rays the home to me_ so_ dear. The
"Bb"d3Bf2d2|"F"c3BA2c2|"Bb"B2A2G2F2|"Gm7"D6"C7"E2|
w:low-ly cot, the leap-ing stream, the spire up-on the hill, I
"F"F3G (FE) "C7"(DC)|"F"c3d"Bb"c2B2|"F"A2F2(AG) "C7"(FE)|"F"F6|]
w:see them as_ I_ lie and dream, my heart is with_ them_ all.
W:
W:Beside the camp fire's fitful blaze,
W:amid the forest dread.
W:I picture in the dying rays
W:the home to me so dear.
W:The lowly cot, the leaping stream,
W:the spire upon the hill,
W:I see them as I lie and dream,
W:my heart is with them all.
W:
W:To my green isle my thoughts return,
W:Sweet Erin ever blest,
W:For thy deep valleys oft I yearn,
W:Wherein my kindred rest,
W:The shamrock springs within my heart
W:When Patrick's day is nigh.
W:For thought from home and friends apart
W:To them fond mem'ries fly.
W:
W:
W:  From Musica Viva - http://www.musicaviva.com
W:  the Internet center for free sheet music downloads.

